images/footer/youtube.svg

<svg width="48" height="48" viewBox="0 0 48 48" fill="none" xmlns="http://www.w3.org/2000/svg">
<rect width="48" height="48" rx="24" fill="#F6F6F6"/>
<path d="M21.9539 26.9531V21.0489L27.1811 24.0013L21.9539 26.9531ZM33.5806 19.1903C33.3445 18.3289 32.6777 17.6628 31.8302 17.4271L31.8122 17.4231C29.683 17.1543 27.2204 17.0007 24.7212 17.0007C24.4671 17.0007 24.2137 17.002 23.961 17.0053L23.9997 17.0046C23.785 17.002 23.5322 17 23.2782 17C20.7789 17 18.315 17.1536 15.8964 17.4509L16.1858 17.4218C15.321 17.6621 14.6542 18.3276 14.4228 19.1718L14.4188 19.189C14.152 20.5854 14 22.1924 14 23.8345C14 23.8927 14 23.951 14.0007 24.0086V23.9993C14.0007 24.0483 14 24.1066 14 24.1649C14 25.8069 14.1527 27.4133 14.4441 28.9712L14.4188 28.8097C14.6548 29.6711 15.3216 30.3372 16.1692 30.5729L16.1872 30.5769C18.3163 30.8457 20.7789 30.9993 23.2782 30.9993C23.5316 30.9993 23.785 30.998 24.0383 30.9947L23.9997 30.9954C24.2144 30.998 24.4678 31 24.7212 31C27.2211 31 29.6843 30.8464 32.1029 30.5491L31.8135 30.5782C32.679 30.3385 33.3458 29.6724 33.5779 28.8282L33.5819 28.811C33.848 27.4146 34 25.8076 34 24.1662C34 24.1079 34 24.0497 33.9993 23.9921V24.0007C33.9993 23.9517 34 23.8934 34 23.8351C34 22.1931 33.8473 20.5867 33.5559 19.0288L33.5806 19.1903Z" fill="black"/>
</svg>

<svg xmlns="http://www.w3.org/2000/svg" width="48" height="48" fill="none" viewBox="0 0 48 48"><rect width="48" height="48" fill="#f6f6f6" rx="24"/><path fill="#000" d="M21.954 26.953V21.05L27.18 24zM33.58 19.19a2.52 2.52 0 0 0-1.75-1.763l-.019-.004a58 58 0 0 0-7.851-.418H24a60.49 60.49 0 0 0-8.103.446l.289-.03a2.52 2.52 0 0 0-1.763 1.75l-.004.018a25.2 25.2 0 0 0-.418 4.82v-.01l-.001.166c0 1.642.153 3.248.444 4.806l-.025-.161a2.52 2.52 0 0 0 1.75 1.763l.018.004a58 58 0 0 0 7.851.418H24a60.48 60.48 0 0 0 8.103-.446l-.29.03a2.52 2.52 0 0 0 1.765-1.75l.004-.018c.266-1.396.418-3.003.418-4.645v-.174.009-.166c0-1.642-.153-3.248-.444-4.806z"/></svg>
